X:1
T:Title
%%score { ( 1 3 4 ) | 2 }
L:1/8
M:4/4
K:Bb
V:1 treble nm="Grand Piano"
V:3 treble 
V:4 treble 
V:2 bass 
V:1
 z4 z2[Q:1/4=112] [DF]2 | [DB]2 [DB]2 [_DA]2 [DG]2 | [DF]2 [B,D]4 [DF]2 | c2 =B2 c2 _d2 | %4
 [Fd]6 [Fd]2 | [^Fd]2 [FA]2 [GB]2 [Ac]2 | [DAc]2 [DGB]4 [DGB]2 | [CFA]2 [CFA]2 [C=EA]2 [B,EG]2 | %8
[M:3/4] [A,F]6 |[M:1/4] F2 |[M:4/4] [Fd]2 [Fd]4 [Ge]2 | d2 c4 F2 | c2 =B2 c2 d2 | %13
 [DB]2 [_DG]2 [=DF]2 [DF]2 | [Fd]2 [Fd]4 [Ge]2 | [Fd]2 [Fc]4 [FA]2 | [=EG]2 [EA]2 [EB]2 [EG]2 | %17
 d2 c2 A2 F2 | z2 z G A2 F2 | z2 d4 z2 | z2 z G A2 e2 | d2 z2 D2 d2 | [=Bf]3 [Bf] e2 c2 | %23
 [Ae]3 [Ae] d2 [DF]2 | [EG]2 [Ge]2 [Fd]2 [Ec]2 |[M:3/4] [DB]6 |] %26
V:2
 z4 z2 [B,,B,]2 | [B,,F,]2 [B,,F,]2 [B,,=E,]2 [B,,E,]2 | [B,,F,]2 [B,,F,]4 [B,,B,]2 | %3
 [F,A,E]2 [F,_A,D]2 [F,=A,E]2 [F,A,=E]2 | [B,,B,]6 [B,,B,]2 | [D,A,]2 [D,D]2 [D,D]2 [D,D]2 | %6
 G,2 G,4 B,,2 | C,2 C,2 C,2 C,2 |[M:3/4] F,6 |[M:1/4] F,2 |[M:4/4] [B,,B,]2 [B,,B,]4 [B,,B,]2 | %11
 [F,A,F]2 [F,A,E]4 [F,A,E]2 | [F,A,E]2 [F,_A,D]2 [F,=A,E]2 [F,A,F]2 | %13
 [B,,F,]2 [B,,=E,]2 [B,,F,]2 [B,,B,]2 | [B,,B,]2 [B,,B,]4 [B,,B,]2 | [C,A,]2 [C,A,]4 [C,C]2 | %16
 [C,B,]2 [C,A,]2 [C,G,]2 [C,B,]2 | [F,A,E]2 [F,A,E]2 [F,CE]2 z2 | F,,2 [F,A,]2 [F,A,E]2 [F,A,E]2 | %19
 B,,2 [F,B,D]2 [F,B,]2 [F,B,D]2 | F,,2 [F,A,]2 [F,A,E]2 [F,A,E]2 | %21
 B,,2 [F,B,D]2 [F,B,]2[K:treble] [B,DB]2 | [G,D]3 [G,D] [CG]2 [CEG]2 | %23
 [F,C]3 [F,C][K:treble] [B,B]2[K:bass] [B,,B,]2 | [E,B,]2 [C,C]2 [F,B,]2 [F,A,]2 | %25
[M:3/4] [B,,B,]6 |] %26
V:3
 x8 | x8 | x8 | x8 | x8 | x8 | x8 | x8 |[M:3/4] x6 |[M:1/4] x2 |[M:4/4] x8 | x8 | x8 | x8 | x8 | %15
 x8 | x8 | x8 | F4 z4 | B2 z2 D2 F2 | F4 z4 | z2 B4 z2 | x8 | x8 | x8 |[M:3/4] x6 |] %26
V:4
 x8 | x8 | x8 | x8 | x8 | x8 | x8 | x8 |[M:3/4] x6 |[M:1/4] x2 |[M:4/4] x8 | x8 | x8 | x8 | x8 | %15
 x8 | x8 | x8 | z2 E2 z4 | x8 | z2 E2 z4 | x8 | x8 | x8 | x8 |[M:3/4] x6 |] %26

